X: 52
T:Australian Ladies
M:2/4
L:1/16
Q:112
R:March
N:
K:D
Ad |f2af d2A2 |B2A2 f2ef |g3e c2ed |ceA2 A2Ad |f2af d2A2  |B2A2 f2A2 |Bd
gf e2cA |d4 d2 :| !
fg |a3f d2a2    |fAdf a2ef |g3e c2e2 |eAce g2fg   |a3f d2a2   |fAdf a2A2
   |Bdgf e2cA d4d2 || !
fg |a3f d2a2    |fAdf a2ef |g3e c2e2 |eAce g2fg   |a2Aa f2a2 |fafe d2A2
  |Bdgf e2cA d4d2 |]
% <A name="D1X053">
